X:1
T:Title
L:1/8
Q:1/4=120
M:3/4
K:C
V:1 treble nm="Church Organ, Staff"
V:1
 G2 G4 | G2 AB c2 | d2 B2 c2 | A2 G4 | G2 G2 A2- | A2 G4 | F2 E2 D2- | D2 C4 | c2 c4 | A2 G4 | %10
w: By~John~Dunstable *||||||||||
 F2 E2 G2 | F2 E4 | G2 G2 A2- | A2 G4 | F2 E2 E2 | D2 C4 | C2 G4 | G2 B2 c2- | c2 B2 c2 | A2 G4 | %20
w: ||||||||||
 G2 C4 | C2 G4 | F2 E2 F2 | D2 C4 | G2 G4 | B2 AB c2 | d2 B3 G | A2 G4 | G2 D4 | D2 C4 | G2 G2 A2 | %31
w: |||||||||||
 F2 E4 | G2 G2 A2- | A2 G4 | F2 E2 F2 | D2 C4 | G2 G4 | G2 AB c2 | d2 B2 c2 | A2 G4 | G2 G2 A2- | %41
w: ||||||||||
 A2 G4 | F2 E2 D2- | D2 C4 |] %44
w: |||

